dist/assets/img/svg/sber-pay.svg

<svg width="79" height="28" viewBox="0 0 79 28" xmlns="http://www.w3.org/2000/svg">
<path d="M56.9527 17.0029C58.3606 16.5758 59.8677 16.7773 61.3166 16.733C61.7882 19.1558 58.8254 20.5125 56.8878 19.624C55.8387 19.1524 55.8147 17.3685 56.9527 17.0029ZM41.3868 7.12008C43.3894 7.19523 45.4944 6.8603 47.415 7.57114C48.9938 8.14528 49.2637 10.1615 48.7717 11.5659C48.4299 12.7176 47.2817 13.3874 46.1574 13.5685C44.5786 13.8213 42.9725 13.6505 41.3834 13.6949C41.4005 11.5045 41.4039 9.31048 41.3868 7.12008ZM65.8343 9.3345C67.625 13.7462 69.4635 18.1374 71.2884 22.5355C70.9124 23.3659 70.6425 24.48 69.6754 24.8012C68.9236 25.0849 68.1923 24.627 67.5601 24.275C67.5908 25.2284 67.5874 26.1819 67.5532 27.1318C68.6468 27.7265 70.0034 27.8426 71.1687 27.4019C72.4571 26.7594 73.0756 25.3617 73.5814 24.0973C75.3379 19.1797 77.0773 14.2554 78.8577 9.34814C77.7915 9.33785 76.7253 9.33785 75.6591 9.3345C74.6305 12.2734 73.8308 15.2977 72.6963 18.199C71.5036 15.2533 70.3759 12.2802 69.1764 9.3345C68.0624 9.34134 66.9484 9.34134 65.8343 9.3345ZM54.0343 10.2537C54.0446 11.5284 54.0446 12.8031 54.007 14.0776C55.2953 12.1298 57.8993 11.3302 60.0966 12.0034C61.2483 12.393 61.2585 13.7599 61.3235 14.7646C59.5601 14.7749 57.7763 14.6928 56.03 14.9935C54.7041 15.2156 53.3679 16.152 53.1561 17.5565C52.8314 19.1865 53.2278 21.213 54.8032 22.0674C57.0552 23.2634 60.3598 22.5493 61.4636 20.1059C61.4567 20.8748 61.4601 21.6402 61.4636 22.4091C62.417 22.4126 63.3704 22.4126 64.3239 22.4091C64.2863 19.2549 64.399 16.0973 64.2658 12.9466C64.2179 11.1832 62.8407 9.67279 61.1287 9.34814C58.7741 8.8936 56.1189 8.93458 54.0343 10.2537ZM24.7787 5.44553C21.1392 8.18625 17.4792 10.8962 13.8227 13.6095C12.0865 12.4818 10.3199 11.3985 8.58046 10.2776C8.58046 11.6309 8.57017 12.9841 8.59085 14.3339C10.3541 15.39 12.0765 16.5109 13.8055 17.6248C18.0431 14.5117 22.2429 11.3473 26.46 8.20679C25.9542 7.25329 25.4211 6.31366 24.7787 5.44553ZM38.137 4.08544C38.1472 10.1957 38.1575 16.3024 38.1506 22.4091C39.2271 22.4091 40.3035 22.4091 41.38 22.4159C41.4313 20.5228 41.3971 18.6262 41.4039 16.733C44.254 16.7057 47.3603 16.962 49.8754 15.3558C52.3872 13.7394 52.8417 10.2196 51.8575 7.59502C51.0886 5.60614 48.9596 4.60487 46.9639 4.33148C44.0387 3.93508 41.0793 4.12986 38.137 4.08544ZM0.00979461 13.6369C-0.195108 18.8244 2.83267 23.9572 7.42189 26.3596C9.77997 27.7469 12.6062 28.1912 15.3058 27.9281C19.9976 27.4463 24.2661 24.3057 26.255 20.0478C27.6219 17.4301 27.8474 14.3784 27.4339 11.4908C26.4497 12.2494 25.4382 12.9705 24.4643 13.7394C24.5326 17.5668 22.4821 21.3635 19.1639 23.2942C16.5222 24.8628 13.1734 25.1977 10.2891 24.1212C6.43449 22.7918 3.59811 19.043 3.27347 14.9935C2.79156 10.5955 5.3647 6.09489 9.38366 4.25972C12.7051 2.65017 16.8095 3.02949 19.844 5.1038C20.753 4.434 21.6483 3.75054 22.5539 3.08075C19.9976 1.18072 16.9018 -0.0529307 13.6826 0.00174637C6.44477 -0.0768519 0.037304 6.44007 0.00979461 13.6369Z"/>
</svg>

<svg width="79" height="28" xmlns="http://www.w3.org/2000/svg"><path d="M56.953 17.003c1.408-.427 2.915-.226 4.364-.27.471 2.423-2.492 3.78-4.43 2.891-1.048-.472-1.072-2.255.066-2.621zM41.387 7.12c2.002.075 4.107-.26 6.028.451 1.579.574 1.849 2.59 1.357 3.995-.342 1.152-1.49 1.821-2.615 2.002-1.578.253-3.184.082-4.774.127.017-2.19.02-4.385.004-6.575zm24.447 2.215c1.791 4.411 3.63 8.802 5.454 13.2-.376.83-.645 1.945-1.613 2.266-.751.284-1.483-.174-2.115-.526.03.953.027 1.907-.007 2.857 1.094.595 2.45.71 3.616.27 1.288-.643 1.907-2.04 2.412-3.305 1.757-4.917 3.496-9.842 5.277-14.749-1.067-.01-2.133-.01-3.199-.014-1.029 2.94-1.828 5.964-2.963 8.865-1.192-2.946-2.32-5.919-3.52-8.865a265.93 265.93 0 01-3.342 0zm-11.8.919c.01 1.274.01 2.55-.027 3.824 1.288-1.948 3.892-2.748 6.09-2.075 1.151.39 1.161 1.757 1.227 2.762-1.764.01-3.548-.072-5.294.228-1.326.223-2.662 1.159-2.874 2.563-.325 1.63.072 3.657 1.647 4.511 2.252 1.196 5.557.482 6.66-1.961-.006.769-.003 1.534 0 2.303.954.004 1.907.004 2.86 0-.037-3.154.076-6.312-.057-9.462-.048-1.764-1.425-3.274-3.137-3.599-2.355-.454-5.01-.413-7.095.906zM24.78 5.446c-3.64 2.74-7.3 5.45-10.956 8.164-1.737-1.128-3.503-2.211-5.243-3.332 0 1.353-.01 2.706.01 4.056 1.764 1.056 3.486 2.177 5.216 3.29 4.237-3.112 8.437-6.277 12.654-9.417-.506-.954-1.039-1.893-1.681-2.761zm13.358-1.36c.01 6.11.02 12.216.014 18.323 1.076 0 2.152 0 3.229.007.051-1.893.017-3.79.024-5.683 2.85-.027 5.956.229 8.471-1.377 2.512-1.617 2.967-5.136 1.983-7.761-.77-1.989-2.898-2.99-4.894-3.264-2.925-.396-5.885-.201-8.827-.246zM.01 13.635c-.205 5.188 2.823 10.321 7.412 12.724 2.358 1.387 5.184 1.831 7.884 1.568 4.692-.482 8.96-3.622 10.949-7.88 1.367-2.618 1.592-5.67 1.179-8.557-.984.758-1.996 1.48-2.97 2.248.069 3.828-1.982 7.624-5.3 9.555-2.642 1.569-5.99 1.904-8.875.827-3.855-1.33-6.69-5.078-7.016-9.127-.481-4.399 2.092-8.9 6.11-10.734 3.322-1.61 7.427-1.23 10.461.844.909-.67 1.804-1.353 2.71-2.023-2.556-1.9-5.652-3.134-8.871-3.08C6.445-.076.037 6.442.01 13.638z"/></svg>
